X: 2040
T: Yalden Sundial
R: jig
C: Rick Gagne
N: 1988 on bouzouki
N: no G or G sharp notes
Q: 1/4=165
M: 6/8
K: A
A | "E5"B2B BAB | "A"cea ecA | "F#m"ced ecA | "D"dcB F2A | 
"E5"B2B BAB | "A"cea ecA | "D"dcB "A"cBA | "E"BAF B2 :|
c | "A"Ace aec | "C#m"Ace dec | "D"Ace aec | "Bm"dfe dec | 
"A"Ace aec | "C#m"Ace dec | "D"dcB "A"cBA | "E5"BAF B2 :|
